apps/scalable/multisystem-icon.svg

<svg xmlns="http://www.w3.org/2000/svg" style="isolation:isolate" width="256" height="256"><defs><filter id="a" width="270.648" height="254.338" x="-7.32" y="2.95" filterUnits="userSpaceOnUse"><feGaussianBlur xmlns="http://www.w3.org/2000/svg" in="SourceGraphic" stdDeviation="4.294"/><feOffset xmlns="http://www.w3.org/2000/svg" dy="4" result="pf_100_offsetBlur"/><feFlood xmlns="http://www.w3.org/2000/svg" flood-opacity=".4"/><feComposite xmlns="http://www.w3.org/2000/svg" in2="pf_100_offsetBlur" operator="in" result="pf_100_dropShadow"/><feBlend xmlns="http://www.w3.org/2000/svg" in="SourceGraphic" in2="pf_100_dropShadow"/></filter></defs><g filter="url(#a)"><linearGradient id="b" x1=".233" x2=".933" y1="-.071" y2=".995" gradientTransform="matrix(244.648 0 0 228.338 5.676 11.947)" gradientUnits="userSpaceOnUse"><stop offset="0%" stop-color="#e8e8e8"/><stop offset="100%" stop-color="#f5f5f5"/></linearGradient><path fill="url(#b)" d="M165.685 11.947c74.055 0 84.639 10.557 84.639 84.544v59.251c0 73.986-10.584 84.543-84.639 84.543h-75.37c-74.055 0-84.639-10.557-84.639-84.543V96.491c0-73.987 10.584-84.544 84.639-84.544h75.37z"/></g><g opacity=".4"><linearGradient id="c" x1=".517" x2=".517" y2="1"><stop offset="0%" stop-color="#fff"/><stop offset="12.5%" stop-opacity=".098" stop-color="#fff"/><stop offset="92.5%" stop-opacity=".098"/><stop offset="100%" stop-opacity=".498"/></linearGradient><path fill="none" stroke="url(#c)" stroke-linecap="round" stroke-linejoin="round" stroke-width="4.077" d="M165.685 11.947c74.055 0 84.639 10.557 84.639 84.544v59.251c0 73.986-10.584 84.543-84.639 84.543h-75.37c-74.055 0-84.639-10.557-84.639-84.543V96.491c0-73.987 10.584-84.544 84.639-84.544h75.37z" vector-effect="non-scaling-stroke"/></g><g filter="url(#d)"><linearGradient id="e" x1=".567" x2=".567" y1="1.071" y2="-.071" gradientTransform="matrix(40.248 0 0 -40.618 176.172 187.06)" gradientUnits="userSpaceOnUse"><stop offset="0%" stop-color="#a0a0a0"/><stop offset="100%" stop-color="#dfdfdf"/></linearGradient><path fill="url(#e)" d="M177.687 187.06h37.218c.839 0 1.515-.682 1.515-1.529v-37.56c0-.847-.676-1.529-1.515-1.529h-37.218c-.839 0-1.515.682-1.515 1.529v37.56c0 .847.676 1.529 1.515 1.529z"/><g opacity=".882"><linearGradient id="f" x1=".5" x2=".5" y1="-.036" y2="1.036" gradientTransform="matrix(8.264 0 0 -8.34 184.114 179.045)" gradientUnits="userSpaceOnUse"><stop offset="0%"/><stop offset="100%" stop-color="#333"/></linearGradient><path fill="url(#f)" d="M184.114 179.045h8.264v-8.34h-8.264v8.34z"/></g><g opacity=".882"><linearGradient id="g" x1=".5" x2=".5" y1="-.036" y2="1.036" gradientTransform="matrix(8.264 0 0 -8.34 200.213 179.045)" gradientUnits="userSpaceOnUse"><stop offset="0%"/><stop offset="100%" stop-color="#333"/></linearGradient><path fill="url(#g)" d="M200.213 179.045h8.265v-8.34h-8.265v8.34z"/></g><path fill="#FDA463" d="M172.483 70.622h47.626c2.416 0 4.36 1.958 4.36 4.389v83.29c0 2.431-1.944 4.389-4.36 4.389h-47.626c-2.416 0-4.361-1.958-4.361-4.389v-83.29c0-2.431 1.945-4.389 4.361-4.389z"/></g><defs><filter id="d" width="116.347" height="176.438" x="138.12" y="44.62" filterUnits="userSpaceOnUse"><feGaussianBlur xmlns="http://www.w3.org/2000/svg" in="SourceGraphic" stdDeviation="4.294"/><feOffset xmlns="http://www.w3.org/2000/svg" dy="4" result="pf_100_offsetBlur"/><feFlood xmlns="http://www.w3.org/2000/svg" flood-opacity=".4"/><feComposite xmlns="http://www.w3.org/2000/svg" in2="pf_100_offsetBlur" operator="in" result="pf_100_dropShadow"/><feBlend xmlns="http://www.w3.org/2000/svg" in="SourceGraphic" in2="pf_100_dropShadow"/></filter></defs><g filter="url(#h)"><path fill="#9B33AE" fill-rule="evenodd" d="M77.093 137.771c4.375 12.199-1.969 25.635-14.168 30.01-12.2 4.375-25.636-1.968-30.011-14.168-4.374-12.199 1.969-25.635 14.168-30.01 12.2-4.375 25.636 1.968 30.011 14.168z"/><path fill="#37A6E6" fill-rule="evenodd" d="M113.54 124.701c4.375 12.199-1.968 25.635-14.168 30.01a23.467 23.467 0 0 1-30.01-14.168c-4.375-12.2 1.968-25.636 14.168-30.01a23.465 23.465 0 0 1 30.01 14.168z"/><path fill="#F76363" fill-rule="evenodd" d="M149.987 111.63a23.467 23.467 0 1 1-44.178 15.844 23.467 23.467 0 0 1 44.178-15.844z"/><path fill="#A6D74F" fill-rule="evenodd" d="M186.434 98.561a23.465 23.465 0 0 1-14.168 30.01c-12.199 4.375-25.635-1.968-30.01-14.168a23.465 23.465 0 0 1 14.168-30.01 23.467 23.467 0 0 1 30.01 14.168z"/><path fill="#FFF" fill-rule="evenodd" d="M222.882 85.491c4.374 12.2-1.969 25.636-14.168 30.01-12.2 4.375-25.636-1.968-30.011-14.168a23.47 23.47 0 0 1 14.168-30.01 23.467 23.467 0 0 1 30.011 14.168z"/><path fill="#FAF8F6" d="M35.663 135.488l6.124-2.196 15.162 17.89.38-23.463 6.123-2.196 10.892 30.373-4.008 1.437-9.564-26.67-.362 23.64-4.129 1.481-15.303-18.023 9.564 26.67-3.987 1.43-10.892-30.373z"/><path fill="#FFF" d="M74.257 121.343l4.13-1.481 6.616 18.451q1.751 4.883 4.294 6.404 2.536 1.502 6.503.079 3.947-1.415 4.951-4.186.996-2.791-.755-7.673l-6.616-18.452 4.129-1.481 6.799 18.96q2.131 5.941.268 10.03-1.843 4.081-7.58 6.139-5.757 2.064-9.793.091-4.017-1.981-6.147-7.921l-6.799-18.96zM113.059 107.734l4.109-1.474 9.652 26.914 14.789-5.303 1.24 3.458-18.899 6.777-10.891-30.372zM146.005 95.945l25.694-9.213 1.24 3.458-10.782 3.866 9.651 26.915-4.13 1.481-9.651-26.915-10.782 3.867-1.24-3.459z"/><path d="M193.292 78.963l4.109-1.474 10.892 30.373-4.109 1.473-10.892-30.372z"/></g><defs><filter id="h" width="252.735" height="159.219" x="1.53" y="43.95" filterUnits="userSpaceOnUse"><feGaussianBlur xmlns="http://www.w3.org/2000/svg" in="SourceGraphic" stdDeviation="4.294"/><feOffset xmlns="http://www.w3.org/2000/svg" dy="4" result="pf_100_offsetBlur"/><feFlood xmlns="http://www.w3.org/2000/svg" flood-opacity=".4"/><feComposite xmlns="http://www.w3.org/2000/svg" in2="pf_100_offsetBlur" operator="in" result="pf_100_dropShadow"/><feBlend xmlns="http://www.w3.org/2000/svg" in="SourceGraphic" in2="pf_100_dropShadow"/></filter></defs></svg>

<svg xmlns="http://www.w3.org/2000/svg" style="isolation:isolate" width="256" height="256" viewBox="0 0 256 256">
 <defs>
  <filter id="fgdz6SDyrLeFxzjwd5omEFw4xKpClxZD" width="270.648" height="254.338" x="-7.32" y="2.95" filterUnits="userSpaceOnUse">
   <feGaussianBlur xmlns="http://www.w3.org/2000/svg" in="SourceGraphic" stdDeviation="4.294"/>
   <feOffset xmlns="http://www.w3.org/2000/svg" dx="0" dy="4" result="pf_100_offsetBlur"/>
   <feFlood xmlns="http://www.w3.org/2000/svg" flood-opacity=".4"/>
   <feComposite xmlns="http://www.w3.org/2000/svg" in2="pf_100_offsetBlur" operator="in" result="pf_100_dropShadow"/>
   <feBlend xmlns="http://www.w3.org/2000/svg" in="SourceGraphic" in2="pf_100_dropShadow" mode="normal"/>
  </filter>
 </defs>
 <g filter="url(#fgdz6SDyrLeFxzjwd5omEFw4xKpClxZD)">
  <linearGradient id="_lgradient_252" x1=".233" x2=".933" y1="-.071" y2=".995" gradientTransform="matrix(244.648,0,0,228.338,5.676,11.947)" gradientUnits="userSpaceOnUse">
   <stop offset="0%" style="stop-color:rgb(232,232,232)"/>
   <stop offset="100%" style="stop-color:rgb(245,245,245)"/>
  </linearGradient>
  <path fill="url(#_lgradient_252)" d="M 165.685 11.947 C 239.74 11.947 250.324 22.504 250.324 96.491 L 250.324 155.742 C 250.324 229.728 239.74 240.285 165.685 240.285 L 90.315 240.285 C 16.26 240.285 5.676 229.728 5.676 155.742 L 5.676 96.491 C 5.676 22.504 16.26 11.947 90.315 11.947 L 165.685 11.947 Z"/>
 </g>
 <g opacity=".4">
  <linearGradient id="_lgradient_253" x1=".517" x2=".517" y1="0" y2="1">
   <stop offset="0%" style="stop-color:rgb(255,255,255)"/>
   <stop offset="12.5%" stop-opacity=".098" style="stop-color:rgb(255,255,255)"/>
   <stop offset="92.5%" stop-opacity=".098" style="stop-color:rgb(0,0,0)"/>
   <stop offset="100%" stop-opacity=".498" style="stop-color:rgb(0,0,0)"/>
  </linearGradient>
  <path fill="none" stroke="url(#_lgradient_253)" stroke-linecap="round" stroke-linejoin="round" stroke-width="4.077" d="M 165.685 11.947 C 239.74 11.947 250.324 22.504 250.324 96.491 L 250.324 155.742 C 250.324 229.728 239.74 240.285 165.685 240.285 L 90.315 240.285 C 16.26 240.285 5.676 229.728 5.676 155.742 L 5.676 96.491 C 5.676 22.504 16.26 11.947 90.315 11.947 L 165.685 11.947 Z" vector-effect="non-scaling-stroke"/>
 </g>
 <g>
  <g filter="url(#xZ4QCTyTuEv6a5iTQp99OMAVoeXOHvqM)">
   <linearGradient id="_lgradient_254" x1=".567" x2=".567" y1="1.071" y2="-.071" gradientTransform="matrix(40.248,0,0,-40.618,176.172,187.06)" gradientUnits="userSpaceOnUse">
    <stop offset="0%" style="stop-color:rgb(160,160,160)"/>
    <stop offset="100%" style="stop-color:rgb(223,223,223)"/>
   </linearGradient>
   <path fill="url(#_lgradient_254)" d="M 177.687 187.06 L 214.905 187.06 C 215.744 187.06 216.42 186.378 216.42 185.531 L 216.42 147.971 C 216.42 147.124 215.744 146.442 214.905 146.442 L 177.687 146.442 C 176.848 146.442 176.172 147.124 176.172 147.971 L 176.172 185.531 C 176.172 186.378 176.848 187.06 177.687 187.06 Z"/>
   <g opacity=".882">
    <linearGradient id="_lgradient_255" x1=".5" x2=".5" y1="-.036" y2="1.036" gradientTransform="matrix(8.264,0,0,-8.34,184.114,179.045)" gradientUnits="userSpaceOnUse">
     <stop offset="0%" style="stop-color:rgb(0,0,0)"/>
     <stop offset="100%" style="stop-color:rgb(51,51,51)"/>
    </linearGradient>
    <path fill="url(#_lgradient_255)" d="M 184.114 179.045 L 192.378 179.045 L 192.378 170.705 L 184.114 170.705 L 184.114 179.045 Z"/>
   </g>
   <g opacity=".882">
    <linearGradient id="_lgradient_256" x1=".5" x2=".5" y1="-.036" y2="1.036" gradientTransform="matrix(8.264,0,0,-8.34,200.213,179.045)" gradientUnits="userSpaceOnUse">
     <stop offset="0%" style="stop-color:rgb(0,0,0)"/>
     <stop offset="100%" style="stop-color:rgb(51,51,51)"/>
    </linearGradient>
    <path fill="url(#_lgradient_256)" d="M 200.213 179.045 L 208.478 179.045 L 208.478 170.705 L 200.213 170.705 L 200.213 179.045 Z"/>
   </g>
   <path fill="#FDA463" d="M 172.483 70.622 L 220.109 70.622 C 222.525 70.622 224.469 72.58 224.469 75.011 L 224.469 158.301 C 224.469 160.732 222.525 162.69 220.109 162.69 L 172.483 162.69 C 170.067 162.69 168.122 160.732 168.122 158.301 L 168.122 75.011 C 168.122 72.58 170.067 70.622 172.483 70.622 Z"/>
  </g>
  <defs>
   <filter id="xZ4QCTyTuEv6a5iTQp99OMAVoeXOHvqM" width="116.347" height="176.438" x="138.12" y="44.62" filterUnits="userSpaceOnUse">
    <feGaussianBlur xmlns="http://www.w3.org/2000/svg" in="SourceGraphic" stdDeviation="4.294"/>
    <feOffset xmlns="http://www.w3.org/2000/svg" dx="0" dy="4" result="pf_100_offsetBlur"/>
    <feFlood xmlns="http://www.w3.org/2000/svg" flood-opacity=".4"/>
    <feComposite xmlns="http://www.w3.org/2000/svg" in2="pf_100_offsetBlur" operator="in" result="pf_100_dropShadow"/>
    <feBlend xmlns="http://www.w3.org/2000/svg" in="SourceGraphic" in2="pf_100_dropShadow" mode="normal"/>
   </filter>
  </defs>
  <g filter="url(#URR2dDuTSXc2eQ4IKlEomkq59WChNFuD)">
   <path fill="#9B33AE" fill-rule="evenodd" d="M 77.093 137.771 C 81.468 149.97 75.124 163.406 62.925 167.781 C 50.725 172.156 37.289 165.813 32.914 153.613 C 28.54 141.414 34.883 127.978 47.082 123.603 C 59.282 119.228 72.718 125.571 77.093 137.771 Z"/>
   <path fill="#37A6E6" fill-rule="evenodd" d="M 113.54 124.701 C 117.915 136.9 111.572 150.336 99.372 154.711 C 93.514 156.812 87.061 156.499 81.432 153.842 C 75.804 151.185 71.462 146.401 69.362 140.543 C 64.987 128.343 71.33 114.907 83.53 110.533 C 89.388 108.432 95.841 108.744 101.469 111.401 C 107.097 114.058 111.439 118.842 113.54 124.701 L 113.54 124.701 Z"/>
   <path fill="#F76363" fill-rule="evenodd" d="M 149.987 111.63 C 152.088 117.489 151.776 123.942 149.119 129.57 C 146.462 135.198 141.678 139.54 135.819 141.641 C 129.961 143.742 123.508 143.429 117.88 140.772 C 112.252 138.115 107.91 133.331 105.809 127.473 C 103.708 121.614 104.021 115.161 106.678 109.533 C 109.335 103.905 114.119 99.563 119.977 97.462 C 125.835 95.362 132.288 95.674 137.916 98.331 C 143.545 100.988 147.887 105.772 149.987 111.63 Z"/>
   <path fill="#A6D74F" fill-rule="evenodd" d="M 186.434 98.561 C 188.535 104.419 188.223 110.872 185.566 116.5 C 182.909 122.129 178.125 126.471 172.266 128.571 C 160.067 132.946 146.631 126.603 142.256 114.403 C 140.155 108.545 140.468 102.092 143.125 96.464 C 145.782 90.836 150.566 86.494 156.424 84.393 C 162.283 82.292 168.736 82.605 174.364 85.262 C 179.992 87.919 184.334 92.703 186.434 98.561 Z"/>
   <path fill="#FFFFFF" fill-rule="evenodd" d="M 222.882 85.491 C 227.256 97.691 220.913 111.127 208.714 115.501 C 196.514 119.876 183.078 113.533 178.703 101.333 C 176.603 95.475 176.915 89.022 179.572 83.394 C 182.229 77.766 187.013 73.424 192.871 71.323 C 198.73 69.222 205.183 69.535 210.811 72.192 C 216.439 74.849 220.781 79.633 222.882 85.491 L 222.882 85.491 Z"/>
   <path fill="#FAF8F6" d="M 35.663 135.488 L 41.787 133.292 L 56.949 151.182 L 57.329 127.719 L 63.452 125.523 L 74.344 155.896 L 70.336 157.333 L 60.772 130.663 L 60.41 154.303 L 56.281 155.784 L 40.978 137.761 L 50.542 164.431 L 46.555 165.861 L 35.663 135.488 Z"/>
   <path fill="#FFFFFF" d="M 74.257 121.343 L 78.387 119.862 L 85.003 138.313 Q 86.754 143.196 89.297 144.717 Q 91.833 146.219 95.8 144.796 Q 99.747 143.381 100.751 140.61 Q 101.747 137.819 99.996 132.937 L 93.38 114.485 L 97.509 113.004 L 104.308 131.964 Q 106.439 137.905 104.576 141.994 Q 102.733 146.075 96.996 148.133 Q 91.239 150.197 87.203 148.224 Q 83.186 146.243 81.056 140.303 L 74.257 121.343 Z"/>
   <path fill="#FFFFFF" d="M 113.059 107.734 L 117.168 106.26 L 126.82 133.174 L 141.609 127.871 L 142.849 131.329 L 123.95 138.106 L 113.059 107.734 Z"/>
   <path fill="#FFFFFF" d="M 146.005 95.945 L 171.699 86.732 L 172.939 90.19 L 162.157 94.056 L 171.808 120.971 L 167.678 122.452 L 158.027 95.537 L 147.245 99.404 L 146.005 95.945 Z"/>
   <path d="M 193.292 78.963 L 197.401 77.489 L 208.293 107.862 L 204.184 109.335 L 193.292 78.963 Z"/>
  </g>
  <defs>
   <filter id="URR2dDuTSXc2eQ4IKlEomkq59WChNFuD" width="252.735" height="159.219" x="1.53" y="43.95" filterUnits="userSpaceOnUse">
    <feGaussianBlur xmlns="http://www.w3.org/2000/svg" in="SourceGraphic" stdDeviation="4.294"/>
    <feOffset xmlns="http://www.w3.org/2000/svg" dx="0" dy="4" result="pf_100_offsetBlur"/>
    <feFlood xmlns="http://www.w3.org/2000/svg" flood-opacity=".4"/>
    <feComposite xmlns="http://www.w3.org/2000/svg" in2="pf_100_offsetBlur" operator="in" result="pf_100_dropShadow"/>
    <feBlend xmlns="http://www.w3.org/2000/svg" in="SourceGraphic" in2="pf_100_dropShadow" mode="normal"/>
   </filter>
  </defs>
 </g>
</svg>
